src/images/miis-shield.svg

<?xml version="1.0" encoding="UTF-8" standalone="no"?>
<svg width="52px" height="58px" viewBox="0 0 52 58" version="1.1" xmlns="http://www.w3.org/2000/svg" xmlns:xlink="http://www.w3.org/1999/xlink">
    <!-- Generator: Sketch 47.1 (45422) - http://www.bohemiancoding.com/sketch -->
    <title>miis-shield</title>
    <desc>Created with Sketch.</desc>
    <defs></defs>
    <g id="Page-1" stroke="none" stroke-width="1" fill="none" fill-rule="evenodd">
        <g id="miis-shield" fill="#FFFFFF">
            <g id="Group">
                <path d="M6.38801626,13.2914309 L8.5439187,13.2914309 C8.57126829,14.0209106 8.65708943,14.7154959 8.79336585,15.3629268 L6.94915447,15.3629268 C6.64689431,14.7244553 6.45073171,14.0275122 6.38801626,13.2914309 Z M6.94915447,10.1863089 L8.79289431,10.1863089 C8.65708943,10.8332683 8.57126829,11.5278537 8.5439187,12.2573333 L6.38801626,12.2573333 C6.45073171,11.521252 6.64689431,10.8247805 6.94915447,10.1863089 Z M9.98401626,7.22170732 C9.61573984,7.75455285 9.30546341,8.40858537 9.06639024,9.15221138 L7.5715935,9.15221138 C8.19403252,8.31852033 9.02206504,7.64845528 9.98401626,7.22170732 Z M11.9187642,6.82938211 L11.9187642,9.15221138 L10.1509431,9.15221138 C10.5970244,7.93656911 11.2453984,7.11278049 11.9187642,6.82938211 Z M11.9187642,12.2573333 L9.57707317,12.2573333 C9.60725203,11.5052195 9.70156098,10.8111057 9.84585366,10.1863089 L11.9187642,10.1863089 L11.9187642,12.2573333 Z M11.9187642,15.3629268 L9.8463252,15.3629268 C9.70156098,14.7381301 9.60725203,14.0440163 9.57707317,13.2914309 L11.9187642,13.2914309 L11.9187642,15.3629268 Z M11.9187642,18.7193821 C11.2453984,18.4364553 10.5970244,17.6126667 10.1514146,16.3970244 L11.9187642,16.3970244 L11.9187642,18.7193821 Z M7.57206504,16.3970244 L9.06639024,16.3970244 C9.30546341,17.1406504 9.61573984,17.7946829 9.98401626,18.3270569 C9.02206504,17.9007805 8.19450407,17.2307154 7.57206504,16.3970244 Z M12.9533333,16.3970244 L14.7206829,16.3970244 C14.2746016,17.6121951 13.6262276,18.4355122 12.9533333,18.7193821 L12.9533333,16.3970244 Z M12.9533333,13.2914309 L15.2950244,13.2914309 C15.2648455,14.0440163 15.170065,14.7381301 15.0257724,15.3629268 L12.9533333,15.3629268 L12.9533333,13.2914309 Z M12.9533333,10.1863089 L15.0262439,10.1863089 C15.1705366,10.8111057 15.2648455,11.5052195 15.2950244,12.2573333 L12.9533333,12.2573333 L12.9533333,10.1863089 Z M12.9533333,6.82985366 C13.6266992,7.11325203 14.2746016,7.93704065 14.7206829,9.15221138 L12.9533333,9.15221138 L12.9533333,6.82985366 Z M17.3005041,9.15221138 L15.8057073,9.15221138 C15.5661626,8.40811382 15.2558862,7.7540813 14.8871382,7.22123577 C15.849561,7.6475122 16.678065,8.31804878 17.3005041,9.15221138 Z M17.9234146,10.1863089 C18.2256748,10.8247805 18.4213659,11.521252 18.4840813,12.2573333 L16.3286504,12.2573333 C16.3008293,11.5278537 16.2150081,10.8332683 16.0787317,10.1863089 L17.9234146,10.1863089 Z M17.9229431,15.3629268 L16.0787317,15.3629268 C16.2150081,14.7154959 16.3008293,14.0209106 16.3286504,13.2914309 L18.4840813,13.2914309 C18.4213659,14.0275122 18.2252033,14.7244553 17.9229431,15.3629268 Z M14.8871382,18.328 C15.2558862,17.7951545 15.5661626,17.1406504 15.8057073,16.3970244 L17.3000325,16.3970244 C16.6775935,17.231187 15.849561,17.901252 14.8871382,18.328 Z M12.4365203,19.8831545 C16.3555285,19.8831545 19.5445854,16.6940976 19.5445854,12.7741463 C19.5445854,8.85466667 16.3555285,5.6660813 12.4365203,5.6660813 C8.51656911,5.6660813 5.3275122,8.85466667 5.3275122,12.7741463 C5.3275122,16.6940976 8.51656911,19.8831545 12.4365203,19.8831545 L12.4365203,19.8831545 Z" id="Fill-3"></path>
                <polyline id="Fill-4" points="46.8314634 16.086748 46.8314634 8.05681301 45.7242764 8.05681301 45.7242764 15.4529919 39.7394309 18.9641138 33.7484553 15.4529919 33.7484553 8.05681301 32.6412683 8.05681301 32.6412683 16.0872195 39.7394309 20.2467154 46.8314634 16.086748"></polyline>
                <path d="M39.1419837,17.2604228 L39.1419837,9.84349593 C37.816,7.40278049 34.8641301,7.35515447 34.8641301,7.35515447 C34.8216911,7.30658537 34.8641301,14.7716098 34.8641301,14.7716098 C34.8641301,14.7716098 37.816,14.8197073 39.1419837,17.2604228" id="Fill-5"></path>
                <path d="M44.5638049,14.8357398 C44.5638049,14.8357398 44.6076585,7.37071545 44.5638049,7.41881301 C44.5638049,7.41881301 41.5812846,7.46643902 40.2406829,9.90668293 L40.2406829,17.3245528 C41.5812846,14.8833659 44.5638049,14.8357398 44.5638049,14.8357398" id="Fill-6"></path>
                <path d="M20.378748,23.0094959 L20.378748,22.4922114 L21.9419187,22.4922114 C22.2083415,20.4523089 24.0294472,18.8693333 26.2296748,18.8693333 C28.4299024,18.8693333 30.2510081,20.4523089 30.5174309,22.4922114 L32.0178862,22.4922114 L32.0178862,23.0094959 C32.0178862,24.7466667 33.5060813,26.1603577 35.3356748,26.1603577 L35.8515447,26.1603577 L35.8562602,27.8145366 L38.8746179,27.8150081 L38.8746179,27.8234959 C39.4239675,27.8763089 39.9157886,28.2247805 40.0996911,28.7547967 C40.299626,29.3300813 39.9700163,29.9511057 39.3645528,30.1416098 C38.8798049,30.2939187 38.3573333,30.044 38.1974797,29.5842439 C38.1036423,29.3145203 38.1932358,29.0306504 38.3997724,28.8491057 L34.8245203,28.8486341 L34.8198049,27.1656911 C32.8388455,26.9393496 31.2615285,25.4289919 31.0163252,23.5263089 L29.516813,23.5263089 L29.516813,23.0094959 C29.516813,21.2968455 28.0422927,19.9034309 26.2296748,19.9034309 C24.4170569,19.9034309 22.9425366,21.2968455 22.9425366,23.0094959 L22.9425366,23.5263089 L21.3798374,23.5263089 C21.1346341,25.4374797 19.5483577,26.9553821 17.5556098,27.1817236 L17.5565528,28.8212846 L13.8459675,28.8255285 C14.0534472,28.9957561 14.1538862,29.2678374 14.0789106,29.5361463 C13.945935,30.0039187 13.440439,30.2816585 12.9476748,30.1562276 C12.3313659,29.9992033 11.9649756,29.3975122 12.1295447,28.8113821 C12.3030732,28.1950732 12.8934472,27.7952033 13.5356911,27.8013333 L13.5356911,27.7914309 L16.5219837,27.7881301 L16.5210407,26.1768618 L17.0383252,26.1768618 C18.8801789,26.1768618 20.378748,24.755626 20.378748,23.0094959 Z M28.8858862,28.1304715 L28.8858862,29.5573659 L27.4580488,29.5573659 C27.3660976,30.16 26.8497561,30.6235285 26.221187,30.6235285 C25.5926179,30.6235285 25.0772195,30.16 24.9852683,29.5573659 L23.558374,29.5573659 L23.558374,28.1309431 C22.9496098,28.0441789 22.4799512,27.5264228 22.4799512,26.8936098 C22.4799512,26.2603252 22.9496098,25.7420976 23.558374,25.6553333 L23.558374,24.2298537 L24.9833821,24.2298537 C25.0692033,23.6196748 25.5874309,23.1486016 26.221187,23.1486016 C26.8549431,23.1486016 27.3741138,23.6196748 27.4594634,24.2298537 L28.8858862,24.2298537 L28.8858862,25.6558049 C29.4932358,25.7444553 29.9605366,26.2617398 29.9605366,26.8936098 C29.9605366,27.5250081 29.4932358,28.0422927 28.8858862,28.1304715 Z M19.008439,22.9595122 C19.008439,24.0761301 17.8833333,24.8570081 16.4960488,24.8570081 C16.4201301,24.8570081 15.2356098,24.8570081 15.2356098,24.8570081 L15.2365528,26.5682439 L11.0610244,26.5649431 L11.0619675,31.1129919 L6.34746341,31.1129919 L6.34746341,32.3196748 L46.036439,32.3196748 L46.036439,31.1129919 L43.1741626,31.1129919 L43.1741626,31.1111057 L41.2318699,31.1111057 L41.2262114,26.5324065 L37.1695122,26.5366504 L37.1647967,24.8570081 C37.1647967,24.8570081 35.886439,24.8570081 35.8166504,24.8570081 C34.4293659,24.8570081 33.3047317,24.0761301 33.3047317,22.9595122 C33.3047317,22.9133008 33.3061463,21.1775447 33.3061463,21.1775447 L31.4435447,21.180374 C30.6381463,19.1489593 28.5110081,17.5221301 26.2098699,17.5221301 C23.9134472,17.5221301 21.7250081,19.1442439 20.917252,21.1709431 L19.0056098,21.1709431 C19.0056098,21.1709431 19.008439,22.9038699 19.008439,22.9595122 L19.008439,22.9595122 Z" id="Fill-7"></path>
                <path d="M7.52538211,33.8517236 L7.57253659,33.8517236 C8.34634146,34.0940976 8.39443902,34.9801301 8.39443902,34.9801301 L8.39443902,35.3785854 L9.40873171,35.3785854 L9.40873171,34.7528455 C9.40873171,34.7528455 9.45682927,33.9097236 10.2296911,33.6791382 L10.2782602,33.6791382 C11.052065,33.9097236 11.0992195,34.7528455 11.0992195,34.7528455 L11.0992195,35.3785854 L12.2790244,35.3785854 L12.2790244,34.7528455 C12.2790244,34.7528455 12.328065,33.9097236 13.1004553,33.6791382 L13.1499675,33.6791382 C13.9228293,33.9097236 13.9704553,34.7528455 13.9704553,34.7528455 L13.9704553,35.3785854 L15.1832683,35.3785854 L15.1832683,34.7528455 C15.1832683,34.7528455 15.2308943,33.9097236 16.0046992,33.6791382 L16.0542114,33.6791382 C16.8266016,33.9097236 16.8742276,34.7528455 16.8742276,34.7528455 L16.8742276,35.3785854 L18.0549756,35.3785854 L18.0549756,34.7528455 C18.0549756,34.7528455 18.1035447,33.9097236 18.8764065,33.6791382 L18.9249756,33.6791382 C19.6983089,33.9097236 19.746878,34.7528455 19.746878,34.7528455 L19.746878,35.3785854 L20.9757236,35.3785854 L20.9757236,34.7528455 C20.9757236,34.7528455 21.0233496,33.9097236 21.7971545,33.6791382 L21.8457236,33.6791382 C22.6185854,33.9097236 22.6671545,34.7528455 22.6671545,34.7528455 L22.6671545,35.3785854 L23.8464878,35.3785854 L23.8464878,34.7528455 C23.8464878,34.7528455 23.8950569,33.9097236 24.6679187,33.6791382 L24.7164878,33.6791382 C25.4907642,33.9097236 25.5379187,34.7528455 25.5379187,34.7528455 L25.5379187,35.3785854 L26.7507317,35.3785854 L26.7507317,34.7528455 C26.7507317,34.7528455 26.7993008,33.9097236 27.5721626,33.6791382 L27.6202602,33.6791382 C28.3935935,33.9097236 28.4412195,34.7528455 28.4412195,34.7528455 L28.4412195,35.3785854 L29.6219675,35.3785854 L29.6219675,34.7528455 C29.6219675,34.7528455 29.6705366,33.9097236 30.4443415,33.6791382 L30.4929106,33.6791382 C31.2648293,33.9097236 31.3133984,34.7528455 31.3133984,34.7528455 L31.3133984,35.3785854 L32.5097073,35.3785854 L32.5097073,34.7528455 C32.5097073,34.7528455 32.5582764,33.9097236 33.3311382,33.6791382 L33.3801789,33.6791382 C34.1530407,33.9097236 34.2020813,34.7528455 34.2020813,34.7528455 L34.2020813,35.3785854 L35.4299837,35.3785854 L35.4299837,34.7528455 C35.4299837,34.7528455 35.4785528,33.9097236 36.2518862,33.6791382 L36.2995122,33.6791382 C37.072374,33.9097236 37.1204715,34.7528455 37.1204715,34.7528455 L37.1204715,35.3785854 L38.3021626,35.3785854 L38.3021626,34.7528455 C38.3021626,34.7528455 38.3497886,33.9097236 39.1235935,33.6791382 L39.1712195,33.6791382 C39.9445528,33.9097236 39.9935935,34.7528455 39.9935935,34.7528455 L39.9935935,35.3785854 L41.2045203,35.3785854 L41.2045203,34.7528455 C41.2045203,34.7528455 41.253561,33.9097236 42.0259512,33.6791382 L42.0754634,33.6791382 C42.8478537,33.9097236 42.8968943,34.7528455 42.8968943,34.7528455 L42.8968943,35.3785854 L43.9102439,35.3785854 L43.9102439,34.9801301 C43.9102439,34.9801301 43.9583415,34.0940976 44.7316748,33.8517236 L44.7807154,33.8517236 C44.808065,33.8602114 44.8325854,33.8715285 44.8580488,33.8814309 L44.8580488,33.2948293 L7.52538211,33.2948293 L7.52538211,33.8517236" id="Fill-8"></path>
                <path d="M50.4981951,25.9849431 C50.4981951,25.9849431 50.4958374,27.370813 49.9842114,29.6158374 L49.9851545,29.6158374 C49.2542602,32.8251707 47.4788943,37.7957236 43.1642602,43.0176098 L43.1699187,36.0684553 L9.11684553,36.0684553 L9.11684553,42.7889106 C4.9342439,37.6514309 3.18858537,32.7784878 2.46146341,29.6158374 L2.46287805,29.6158374 C1.94653659,27.370813 1.9404065,25.9849431 1.9404065,25.9849431 L1.9404065,1.82487805 L50.4981951,1.82487805 L50.4981951,25.9849431 Z M36.4999187,49.4391057 C33.682439,51.6346179 30.3000488,53.7641138 26.2329756,55.711122 C22.1093171,53.7362927 18.6868455,51.5733171 15.844374,49.3433821 C15.8448455,49.1623089 15.8448455,49.0637561 15.8453171,49.0632846 C15.8453171,43.3599512 20.4692846,38.7355122 26.1730894,38.7355122 C31.8764228,38.7355122 36.4999187,43.3599512 36.4999187,49.0632846 C36.5003902,49.0618699 36.5003902,49.1962602 36.4999187,49.4391057 Z M0.396569106,0.330552846 L0.396569106,26.5654146 C0.39704065,26.6092683 0.459756098,31.2959512 3.69313821,37.4401789 C6.65962602,43.0774959 12.9754959,51.1244065 26.2343902,57.5572195 C39.5041301,51.1220488 45.8115122,43.0756098 48.7690407,37.4392358 C51.9929919,31.2959512 52.0425041,26.6111545 52.0425041,26.5644715 L52.0425041,0.330552846 L0.396569106,0.330552846 L0.396569106,0.330552846 Z" id="Fill-9"></path>
                <path d="M21.6830407,44.692065 L21.1586829,44.692065 L19.8077073,45.6398699 L19.9887805,46.0373821 C20.0694146,46.0105041 20.3183902,45.9025203 20.499935,45.8143415 C20.6814797,45.7275772 20.8899024,45.5927154 20.9568618,45.5531057 L20.9568618,48.5389268 L20.1773984,48.5389268 L20.1773984,49.1368455 L22.309252,49.1368455 L22.309252,48.5389268 L21.6830407,48.5389268 L21.6830407,44.692065" id="Fill-10"></path>
                <path d="M25.050813,46.7362114 C24.8225854,46.9451057 24.6207642,47.0318699 24.365187,47.0318699 C23.9073171,47.0318699 23.6253333,46.6890569 23.6253333,46.1444228 C23.6253333,45.5658374 23.9209919,45.1895447 24.365187,45.1895447 C24.8225854,45.1895447 25.1177724,45.5870569 25.1177724,46.2250569 C25.1177724,46.4202764 25.1040976,46.5414634 25.050813,46.7362114 Z M24.392065,44.6114309 C23.4904715,44.6114309 22.8114472,45.2701789 22.8114472,46.1580976 C22.8114472,46.9922602 23.416439,47.6109268 24.2161789,47.6109268 C24.4519512,47.6109268 24.6674472,47.5571707 24.8895447,47.4289106 C24.8423902,47.5430244 24.781561,47.6642114 24.7278049,47.7514472 C24.438748,48.2225203 23.9346667,48.619561 23.4098374,48.8614634 C23.2150894,48.9553008 23.073626,49.0024553 22.8652033,49.0425366 L23.2546992,49.4933333 C23.853561,49.3655447 24.4660976,49.0024553 24.9093496,48.5860813 C25.5685691,47.9669431 25.9250569,47.1936098 25.9250569,46.3528455 C25.9250569,45.4050407 25.4068293,44.6114309 24.392065,44.6114309 L24.392065,44.6114309 Z" id="Fill-11"></path>
                <path d="M27.6843902,46.4 C27.5433984,46.4 27.4896423,46.4070732 27.307626,46.4334797 L27.4160813,45.3446829 L28.7807317,45.3446829 L28.8948455,44.7194146 L26.7299837,44.7194146 L26.5144878,47.1464553 C26.843626,47.0257398 27.1402276,46.9719837 27.4358862,46.9719837 C27.9470407,46.9719837 28.2893821,47.2407642 28.2893821,47.7589919 C28.2893821,48.3837886 27.7315447,48.8416585 26.9714146,48.8416585 C26.7568618,48.8416585 26.6215285,48.8209106 26.3933008,48.7473496 L26.548439,49.2981138 C26.7568618,49.3452683 26.843626,49.3523415 27.0525203,49.3523415 C27.4693659,49.3523415 27.8862114,49.2580325 28.208748,49.0896911 C28.7467805,48.8143089 29.0966667,48.282878 29.0966667,47.6910894 C29.0966667,46.8842764 28.4643252,46.4 27.6843902,46.4" id="Fill-12"></path>
                <path d="M30.9097561,46.4 C30.7687642,46.4 30.7150081,46.4070732 30.5334634,46.4334797 L30.6414472,45.3446829 L32.0060976,45.3446829 L32.1202114,44.7194146 L29.9553496,44.7194146 L29.7398537,47.1464553 C30.0689919,47.0257398 30.3655935,46.9719837 30.661252,46.9719837 C31.172878,46.9719837 31.514748,47.2407642 31.514748,47.7589919 C31.514748,48.3837886 30.956439,48.8416585 30.197252,48.8416585 C29.9822276,48.8416585 29.8473659,48.8209106 29.6186667,48.7473496 L29.7733333,49.2981138 C29.9822276,49.3452683 30.0689919,49.3523415 30.2778862,49.3523415 C30.6952033,49.3523415 31.1115772,49.2580325 31.4341138,49.0896911 C31.9721463,48.8143089 32.3220325,48.282878 32.3220325,47.6910894 C32.3220325,46.8842764 31.6896911,46.4 30.9097561,46.4" id="Fill-13"></path>
            </g>
        </g>
    </g>
</svg>

<svg xmlns="http://www.w3.org/2000/svg" width="52" height="58" viewBox="0 0 52 58">
  <title>
    miis-shield
  </title>
  <g fill="#FFF" fill-rule="evenodd">
    <path d="M6.39 13.3h2.15c.03.72.12 1.42.25 2.06H6.95c-.3-.64-.5-1.33-.56-2.07zm.56-3.11h1.84c-.13.64-.22 1.34-.25 2.07H6.4c.06-.74.26-1.44.56-2.07zm3.03-2.97a7.37 7.37 0 0 0-.91 1.93h-1.5a6.1 6.1 0 0 1 2.41-1.93zm1.94-.4v2.33h-1.77c.45-1.21 1.1-2.04 1.77-2.32zm0 5.44H9.58c.03-.75.12-1.45.27-2.07h2.07v2.07zm0 3.1H9.85c-.15-.62-.24-1.32-.27-2.07h2.34v2.07zm0 3.36c-.67-.28-1.32-1.1-1.77-2.32h1.77v2.32zM7.57 16.4h1.5c.24.74.55 1.4.91 1.93a6.1 6.1 0 0 1-2.4-1.93zm5.38 0h1.77c-.45 1.21-1.1 2.04-1.77 2.32V16.4zm0-3.1h2.35c-.04.74-.13 1.44-.27 2.06h-2.08V13.3zm0-3.11h2.08c.14.62.23 1.32.27 2.07h-2.35v-2.07zm0-3.36c.68.28 1.32 1.1 1.77 2.32h-1.77V6.83zm4.35 2.32h-1.5a7.37 7.37 0 0 0-.91-1.93 6.1 6.1 0 0 1 2.41 1.93zm.62 1.04c.3.63.5 1.33.56 2.07h-2.15c-.03-.73-.11-1.43-.25-2.07h1.84zm0 5.17h-1.84c.14-.64.22-1.34.25-2.07h2.15a6.03 6.03 0 0 1-.56 2.07zm-3.03 2.97c.37-.53.68-1.19.92-1.93h1.49a6.1 6.1 0 0 1-2.41 1.93zm-2.45 1.55a7.12 7.12 0 1 0-.02-14.23 7.12 7.12 0 0 0 .02 14.23zM46.83 16.09V8.06h-1.1v7.4l-6 3.5-5.98-3.5v-7.4h-1.1v8.03l7.09 4.16 7.1-4.16"/>
    <path d="M39.14 17.26V9.84c-1.32-2.44-4.28-2.48-4.28-2.48-.04-.05 0 7.41 0 7.41s2.96.05 4.28 2.49M44.56 14.84s.05-7.47 0-7.42c0 0-2.98.05-4.32 2.49v7.41c1.34-2.44 4.32-2.48 4.32-2.48M20.38 23v-.5h1.56a4.27 4.27 0 0 1 4.29-3.63c2.2 0 4.02 1.58 4.29 3.62h1.5v.52a3.24 3.24 0 0 0 3.32 3.15h.51v1.65h3.02v.01c.55.06 1.05.4 1.23.93.2.58-.13 1.2-.74 1.4-.48.14-1-.1-1.16-.57-.1-.27 0-.55.2-.73h-3.58v-1.68a4.28 4.28 0 0 1-3.8-3.64h-1.5V23a3.2 3.2 0 0 0-3.29-3.1 3.2 3.2 0 0 0-3.29 3.1v.52h-1.56a4.3 4.3 0 0 1-3.82 3.65v1.64h-3.71c.2.18.3.45.23.72a.93.93 0 0 1-1.13.62 1.1 1.1 0 0 1-.82-1.35c.17-.61.76-1.01 1.4-1v-.02h3v-1.61h.5A3.26 3.26 0 0 0 20.39 23zm8.5 5.13v1.43h-1.42a1.25 1.25 0 0 1-2.47 0h-1.43v-1.43a1.25 1.25 0 0 1 0-2.47v-1.43h1.42a1.25 1.25 0 0 1 2.48 0h1.43v1.43a1.25 1.25 0 0 1 0 2.47zm-9.87-5.17c0 1.12-1.13 1.9-2.51 1.9h-1.26v1.7h-4.18v4.55H6.35v1.21h39.69v-1.2H41.23v-4.59h-4.06v-1.67h-1.35c-1.4 0-2.52-.78-2.52-1.9v-1.78h-1.86a5.86 5.86 0 0 0-5.23-3.66 5.95 5.95 0 0 0-5.3 3.65h-1.9v1.79zM7.53 33.85h.04c.78.24.82 1.13.82 1.13v.4h1.02v-.63s.05-.84.82-1.07h.05c.77.23.82 1.07.82 1.07v.63h1.18v-.63s.05-.84.82-1.07h.05c.77.23.82 1.07.82 1.07v.63h1.21v-.63s.05-.84.82-1.07h.05c.78.23.82 1.07.82 1.07v.63h1.18v-.63s.05-.84.83-1.07h.04c.78.23.83 1.07.83 1.07v.63h1.23v-.63s.04-.84.82-1.07h.05c.77.23.82 1.07.82 1.07v.63h1.18v-.63s.05-.84.82-1.07h.05c.77.23.82 1.07.82 1.07v.63h1.21v-.63s.05-.84.82-1.07h.05c.77.23.82 1.07.82 1.07v.63h1.18v-.63s.05-.84.82-1.07h.05c.77.23.82 1.07.82 1.07v.63h1.2v-.63s.05-.84.82-1.07h.05c.77.23.82 1.07.82 1.07v.63h1.23v-.63s.05-.84.82-1.07h.05c.77.23.82 1.07.82 1.07v.63h1.18v-.63s.05-.84.82-1.07h.05c.77.23.82 1.07.82 1.07v.63h1.21v-.63s.05-.84.83-1.07h.05c.77.23.82 1.07.82 1.07v.63h1.01v-.4s.05-.89.82-1.13h.05l.08.03v-.59H7.53v.56"/>
    <path d="M50.5 25.98s0 1.4-.52 3.64c-.73 3.2-2.5 8.18-6.82 13.4l.01-6.95H9.12v6.72a32.6 32.6 0 0 1-6.66-13.17c-.51-2.25-.52-3.64-.52-3.64V1.82H50.5v24.16zm-14 23.46a55.85 55.85 0 0 1-10.27 6.27 55.77 55.77 0 0 1-10.39-6.37v-.28a10.33 10.33 0 1 1 20.66.38zM.4.34v26.23c0 .04.06 4.73 3.3 10.87 2.96 5.64 9.28 13.68 22.53 20.12 13.27-6.44 19.58-14.48 22.54-20.12 3.22-6.14 3.27-10.83 3.27-10.88V.33H.4z"/>
    <path d="M21.68 44.7h-.52l-1.35.94.18.4.51-.23c.18-.08.39-.22.46-.26v2.99h-.78v.6h2.13v-.6h-.63v-3.85M25.05 46.74c-.23.2-.43.3-.68.3-.46 0-.74-.35-.74-.9 0-.57.3-.95.74-.95.45 0 .75.4.75 1.04 0 .19-.02.31-.07.5zm-.66-2.13c-.9 0-1.58.66-1.58 1.55a1.4 1.4 0 0 0 2.08 1.27c-.05.11-.1.23-.16.32a3.09 3.09 0 0 1-1.86 1.3l.38.44c.6-.12 1.22-.49 1.66-.9a3.03 3.03 0 0 0 1.02-2.24c0-.94-.52-1.74-1.54-1.74zM27.68 46.4c-.14 0-.19 0-.37.03l.1-1.09h1.37l.11-.62h-2.16l-.22 2.43c.33-.12.63-.18.93-.18.5 0 .85.27.85.79 0 .62-.56 1.08-1.32 1.08-.21 0-.35-.02-.58-.1l.16.56a2.56 2.56 0 0 0 1.66-.2c.54-.29.89-.82.89-1.4 0-.82-.64-1.3-1.42-1.3M30.91 46.4c-.14 0-.2 0-.38.03l.11-1.09h1.37l.11-.62h-2.16l-.22 2.43c.33-.12.63-.18.92-.18.51 0 .85.27.85.79 0 .62-.55 1.08-1.31 1.08-.22 0-.35-.02-.58-.1l.15.56c.21.05.3.05.5.05.43 0 .84-.1 1.16-.26.54-.28.9-.8.9-1.4 0-.8-.64-1.29-1.42-1.29"/>
  </g>
</svg>
